X:1
T:Khvalitye imya Gospodie
T:Сергeй Рахманинов, 1893
T:В Молитвах Неусыпающую концерт
T:Public Domain
T:Public Domain
T:Public Domain
T:Public Domain
T:Public Domain
T:Public Domain
T:Public Domain
T:Public Domain
T:Public Domain
T:Public Domain
T:Public Domain
T:Public Domain
T:Public Domain
T:Public Domain
T:Public Domain
C:Sergei Rakhmanninov
Z:Public Domain
%%score [ ( 1 2 ) 3 4 5 ]
L:1/8
Q:1/4=120
M:4/4
K:Bb
V:1 treble nm="Сопрано" snm="С."
V:2 treble 
V:3 treble nm="Альт" snm="А."
V:4 treble-8 nm="Тенор" snm="Т."
V:5 bass nm="Бас" snm="Б."
V:1
"^1. Умеренно (строго в такт)\n     Moderate (strictly in time)"!ppp!"^V mo–lit–vakh        nye–u–sui–pa-yu-shchu-yu    Bo-go–ro  –   di – tsu                           i  v pred–sta–tel'–stvakh""^В мо-лит-вах           не–у–сы – па – ю–щу–ю     Бо-го–ро  –  ди – цу                          и в пред-ста-тель-ствах" G2 | %1
 G4 G4 | z2 G2 G2 G2 | G4 G2 G2 | G4 G2 G2 | [Bd]6 [Bd]2 | [Bd]8- | [Bd]2 z2 F2 F2 | F4 F2 F2 | %9
"^ми–ра               не-пре-лож-но –е      у–по–ва  –  ни –  е;         В мо-лит-вах не–у–сы–па – ю-щу-ю""^mi –ra              nye-pre-lozh-no-ye      u–po–va   –   ni  – ye;       V mo-lit-vakh nye-u-sui-pa-yu-shchu-yu" G4 G4- | %10
 G2 z2 G2 G2 | G6 G2 | G4 G2 G2 |!ppp! [Gd]6 [Gd]2 | [Gd]8- |!<(! [Gd]2 G2!mf! B2!>(! A2!<)!!>)! | %16
 G4 G2 G2 | G4 G2 G2 | G8- | G8- | G8- | %21
!<(! G2"^Бо   –  го – ро   –   ди– цу                                               и  в пред–ста –""^Bo   –  go – ro    –   di  –tsu                                               i   v  pred –sta  –" (G2!mf! B2)!>(! A2!<)!!>)! | %22
 G6 G2 |!<(! G8-!<)! | G8- |!<(! G2 (G2!f! B2)!>(! A2!<)!!>)! | G8- | %27
!<(! G2"^–тель-ствах  ми       –       –          ра    не-пре-лож     –    но – е              у – по –ва      –     ни – е;""^– tel' –stvakh  mi       –       –          ra    nye-pre-lozh    –     no – ye            u – po –va      –      ni – ye;" G2!mf! (B2!>(! A2)!<)!!>)! | %28
 G8- |!<(! G2 G2!p!!>(! B2 A2!<)!!>)! | G6 G2 | G4!pp! B2 A2 | G6 G2 | G2 z2 z4 | z4 z2!p! d2 | %35
 c4 d4- | d2!>(! f2 e2 f2!>)! | (e2 de) d2 cd |!>(! (c2 B2) B2 c2!>)! |!pp! d6 d2 | d4- d2 z2 | %41
 z2!<(! B4 c2!<)! | d4 e2 f2 | g4!ff! b4- | b2!>(! (b2 a2) b2!>)! | a2 ga g4- | g2!ff! (b2 a2) b2 | %47
 a2 ga g4- | g2!>(! (d2 c2) d2!>)! |!mf! c2 Bc B4- | B2!>(! (B2 A2) B2!>)! | A2 GA G4 |!pp! E6 E2 | %53
 E6 D2 | D8 | %55
!p!"^Гроб и  у-мерщ-вле– ни–е     не          у-дер–""^Grob  i  u-mershch-vle-ni–ye   nye        u-der–" [GB]2 [^FA]2 G2 [FA]2 | %56
 ([GB]2 [^FA]2) G2 [FA]2 |!<(! ([GB]2 [^FA]2) [GB]2 [Ac]2!<)! | %58
!f!"^жа  – ста,   Гроб  и  у-мерщ-вле  –   ни –е      не            у  – дер – жа   –  ста,           не               у  – дер– жа –ста, не""^zha – sta,    Grob  i  u-mershch-vle–    ni–ye     nye          u  –  der – zha  –  sta,            nye             u  – der –zha–sta,  nye" [Bd]4 ([Bd]2 [Ac]2) | %59
!mf! [Bd]2 [Ac]2 B2 [Ac]2 | ([Bd]2 [Ac]2) B2 [Ac]2 |!<(! ([Bd]2 [Ac]2) [Bd]2 [^c=e]2!<)! | %62
!ff! [df]4 ([df]2 [^c=e]2) |!<(! ([df]2 [^c=e]2) [df]2 [_eg]2!<)! |!fff! [eg]4 [eg]4 | %65
 z2"^не   у–дер– жа–ста,           не   у–дер–жа –ста.       Гроб и     у-мерщ–вле  – ни–е      не         у–дер–жа–ста,""^nye u–der –zha–sta,           nye  u–der–zha–sta.        Grob  i     u-mershch-vle–  ni–ye    nye       u–der–zha–sta," !>![eg]2 !>![eg]2 !>![eg]2 | %66
 !>![eg]4 !>![eg]4 | z2 !>![Bd]2 !>![Bd]2 !>![Bd]2 | !>![eg]4 !>![eg]4 |!ff! e2 e2 d2 c2 | %70
!>(! (B2 d2) c2 B2!>)! | (A2 c2) B2 A2 | G4 G4 | %73
 z2!pp!"^замедляя темп\nslower tempo"[Q:1/4=100]"^не  у–дер–жа–ста,           не  у–дер–жа       –      ста,         Гроб и     у-мерщ–вле  – ни–е      не         у–дер–жа–""^nye u–der –zha–sta,          nye u–der–zha      –       sta,         Grob  i     u-mershch-vle–  ni–ye    nye       u–der–zha–" G2 G2 G2 | %74
 G4 G2 z2 | z2 G2 G2 G2 | (G4 ^F4) | (G2!p! AG B2 ec | d2 cd B2 AB | G2 AG B2 ec | d2 cd B2 AB | %81
 G4)"^не     у – дер –жа – ста,             не    у – дер –жа–ста.""^nye    u – der –zha – sta,             nye   u – der –zha–sta." E2 EE | %82
 !tenuto!G4 G4- |[Q:1/4=90] G2"^замедляя\nslower" E2 E2 E2 | G4 !fermata!G4 |] %85
[K:Eb][M:4/4]"^2. Немного медленнее"[Q:1/4=100]!mf!"^Я  –  ко – же  бо     Жи–во–та           Ма     –    терь,       к жи–во–ту  пре– ста       –       –       –       –     ви.""^Ya – ko – zhe bo    Zhi – vo–ta            Ma     –     ter',         k zhi–vo–tu    pre – sta        –       –       –       –      vi."!<(! G3 =A =B2 c2!<)! | %86
 d2 e2 (f3 g) |!>(! (e3 f) (e2 dc)!>)! | d2 c2 =B2 G2 |!<(! c8-!<)! | c4 g4 | %91
"^Ма    –   терь,     к жи–во–ту пре–ста       –       –       –   ви,                        к жи –во–ту                          пре–ста  –""^Ma    –    ter',        k zhi–vo–tu  pre – sta        –       –       –   vi,                         k zhi –vo–tu                            pre– sta  –"!>(! (f3 g) (f2 ed)!>)! | %92
 e2 d2 c2 e2 |!<(! (=B3 c d2 e2)!<)! | (f2 g2 a2 b2) |!>(! g3 f g4-!>)! | g2 d2 (g4- | %97
!p! g3 f)"^–ви,       к жи    –   во       –       –        –       ту                                      пре – ста           –         ви.""^–vi,        k zhi    –    vo      –       –         –       tu                                        pre– sta             –         vi." (e2 d2) | %98
 c4 (B4- | B2 AG) (A4- | A2 G4) e2 |"^замедляя\nslower"[Q:1/4=85]!>(! (c4 =B4)!>)! | %102
!pp! !fermata!c8 |] %103
[K:G][M:4/4]"^3. Скоро\nFast"[Q:1/4=150]!ff!"^Во   у    –   тро   –    бу   Все –ли–вый–ся прис-но-дев –ствен–ну  –  ю,          прис-но  –  дев – ствен–ну  –""^Vo   u    –    tro    –    bu   Vsye–li – vuii–sya  pris– no-dev –stven – nu  – yu,          pric – no  –  dev – stven – nu  –" GG | %104
 G4 A2 B2 | c2 d2 e2 ff |!fff! g4 g2 g2 | g4 g2 g2 | g4 g2 g2 | %109
"^–ю.                    Во   у –  тро      –      бу   Все  –ли       –       –       –       –        вый  –   ся,                         Во   у–тро–бу Все–""^–yu.                  Vo   u –   tro       –      bu   Vsye– li         –       –       –       –        vuii   –   sya,                        Vo   u– tro–bu  Vse–" g6!ff! !>!d!>!d | %110
 g4 f2 e2 | (d2 e2 d2 c2 | d4)!>(! A4!>)! | G4- G2 z2 | %114
 z2"^Строго в такт\nStrictly in time"!ppp! BB B2 BB | %115
"^–ли–вый–ся               прис–но–дев-ствен-ну-ю,                      Во  у– тро– бу  Все–ли –вый–ся,               прис–но –""^– li – vuii–sya               pris – no–dev- stven–nu–yu,                    Vo  u – tro – bu  Vse – li –  vuii–sya,               pris – no –" [Bd]3 [Bd] [Bd]4 | %116
 z2 [GB]4 [GB]2 | [Gd]2 [Gd][Gd] [Gd]4 | z2 BB B2 BB | [Bd]3 [Bd] [Bd]4 | z2 [GB]4 [GB]2 | %121
"^–дев-ствен-ну-ю,     прис  –  но-дев-ствен-ну-ю,           Во   у  – тро   –   бу Все –ли-вый-ся прис-но-дев –""^–dev-stven–nu–yu,    pric    –  no-dev-stven–nu–yu,           Vo   u  –  tro    –   bu Vsye–li –vuii–sya pris–no–dev  –" [Gd]2 [Gd][Gd] [Gd]4 | %122
"^замедляя темп\nslower tempo"[Q:1/4=140]!mf! B6 B2 | d4!>(! d2 d2!>)! |!p! d6!ff! GG | G4 A2 B2 | %126
 c2 d2 e2 ff | (g4!fff! [fa]4- | [fa]2 [eg]2 [df]2 [eg]2 | %129
 [fa]2 [eg]2)"^–ствен-ну–ю,                Во   у  –  тро       –       –       –       –       –    бу  Все  –  ли – вый  –ся""^–stven –nu–yu,                Vo   u  –  tro        –        –      –        –       –    bu Vsye –   li   – vuii  –sya" [df]2 [eg]2 | %130
 a6!ff! !>!d!>!d | (a6 g2 | f2 g2) [df]2 [ce]2 | [Bd]4!>(! A4!>)! | G4- G2 z2 | %135
 z2"^Во   у–тро-бу Все-ли-вый-ся     прис-но-дев-ствен-ну-ю,          Во у-тро-бу Все–ли-вый-ся      прис-но–"!ppp!"^Vo   u– tro–bu Vsye–li–vuii–sya   pris– no–dev–stven–nu–yu,        Vo u–tro–bu Vsye–li–vuii–sya     pris  –no–" BB B2 BB | %136
 [Bd]3 [Bd] [Bd]4 | z2 [GB]4 [GB]2 | [Gd]2 [Gd][Gd] [Gd]4 | z2 BB B2 BB | [Bd]3 [Bd] [Bd]4 | %141
 z2 [GB]4 [GB]2 | %142
"^–дев-ствен-ну-ю,     прис – но-дев-ствен-ну-ю,                       Во     у– тро–бу  Все –ли–вый–ся              прис-но–""^–dev–stven–nu–yu,     pris   – no-dev-stven –nu–yu,                     Vo     u–  tro –bu Vsye– li – vuii–sya             pris – no–" [Gd]2 [Gd][Gd] [Gd]4 | %143
!mf! B6"^замедляя темп\nslower tempo"[Q:1/4=130] B2 |!>(! d4 F2 F2!>)! |!p! G4- G2 z2 | %146
 z2"^Прежний темп\nThe first tempo"[Q:1/4=150]!ppp! EE E2 EE | G3 G G4 | z2 _E4 E2 | %149
"^–дев-ствен-ну-ю,             Во    у – тро–бу Все –ли–вый–ся           прис-но– дев-cтвен-ну-ю,          прис-но-дев–""^–dev–stven–nu–yu,           Vo   u  – tro –bu Vsye– li – vuii–sya          pris – no –dev–stven–nu–yu,         pris –no–dev–" G2 GG G4 | %150
 z2 EE E2 EE | G3 G G4 | z2 _E4 E2 | G2 GG G4 | z4!ppp! G2 G2 | G8 | %156
"^–ствен–ну –  ю.""^– stven –nu  –yu." G4 G4 | !fermata!G8 |] %158
V:2
 x2 | x8 | x8 | x8 | x8 | x8 | x8 | x8 | x8 | x8 | x8 | x8 | x8 | x8 | x8 | x8 | x8 | x8 | x8 | %19
 x8 | x8 | x8 | x8 | x8 | x8 | x8 | x8 | x8 | x8 | x8 | x8 | x8 | x8 | x8 | x8 | x8 | x8 | x8 | %38
 x8 | x8 | x8 | x8 | x8 | x8 | x8 | x8 | x8 | x8 | x8 | x8 | x8 | x8 | x8 | x8 | x8 | x8 | x8 | %57
 x8 | x8 | x8 | x8 | x8 | x8 | x8 | x8 | x8 | x8 | x8 | x8 | x8 | x8 | x8 | x8 | x8 | x8 | x8 | %76
 x8 | x8 | x8 | x8 | x8 | x8 | x8 | x8 | x8 |][K:Eb][M:4/4] x8 | x8 | x8 | x8 | x8 | x8 | x8 | x8 | %93
 x8 | x8 | x8 | x8 | x8 | x8 | x8 | x8 | x8 | x8 |][K:G][M:4/4] x2 | x8 | x8 | (g2 e2) d2 c2 | %107
 (g2 e2) d2 c2 | (g2 e2) d2 c2 | (g2 e2 d2) dd | x8 | x8 | x8 | x8 | x8 | x8 | x8 | x8 | x8 | x8 | %120
 x8 | x8 | x8 | x8 | x8 | x8 | x8 | x8 | x8 | x8 | (f2 e2 d2) dd | (d8- | d2 e2) z4 | x8 | x8 | %135
 x8 | x8 | x8 | x8 | x8 | x8 | x8 | x8 | x8 | x8 | x8 | x8 | x8 | x8 | x8 | x8 | x8 | x8 | x8 | %154
 x8 | x8 | x8 | x8 |] %158
V:3
!ppp! D2 | D4 D4 | z2 D2 D2 D2 | E4 E2 E2 | E4 E2 E2 | [DF]6 [DF]2 | [DF]8- | [DF]2 z2 D2 D2 | %8
 D4 D2 D2 | E4 E4- | E2 z2 E2 E2 | E6 E2 | E4 E2 E2 |!ppp! [B,D]6 [B,D]2 | [B,D]8- | [B,D]2 z2 z4 | %16
 z4 z2!p!"^В мо-лит–вах            не–у–сы–""^V mo-lit–vakh            nye-u-sui–" D2 | C4 D4- | %18
 D2 F2 E2 F2 | %19
"^–па     –    ю–щу – ю            Бо–го – ро     –     ди – цу""^–pa    –  yu-shchu-yu           Bo–go – ro     –      di – tsu" (E2 DE) D2 CD | %20
 (C2 B,2) C2 D2 |!p! E6 E2 | E4- E2 z2 | %23
 z2"^и в пред-ста-тель-ствах ми– ра                 не  – пре–""^i  v pred–sta–tel'–stvakh mi – ra                 nye – pre –"!<(! E4 F2!<)! | %24
 G4 G2 A2 | B4!f! d4- | d2!>(! (d2 c2) d2!>)! | %27
"^–лож-но –е                   у   –   по –ва–ни – е;                    не  – пре-лож-но–е""^–lozh-no–ye                  u    –  po  –va–ni– ye;                   nye – pre-lozh-no-ye" c2 Bc B4- | %28
 B2!>(! (d2 c2) d2!>)! | c2!>(! Bc B4-!>)! | B2 (G2 F2) G2 | F2 EF E4- | %32
 E2!ppp!"^у   –   по – ва–ни  –   е;""^u    –   po  –va –ni  –  ye;" (D2 C2) D2 | C2 B,C B,2 z2 | %34
 z4 z2!p!"^В  мо-лит-вах               не–у–сы–па     –     ю –щу   –   ю        Бо-го –ро      –      ди – цу                      и в пред–""^V  mo–lit–vakh           nye–u–sui–pa     –    yu-shchu – yu        Bo-go–ro       –       di – tsu                      i  v pred –" G2 | %35
 G4 G4- | G2!>(! G2 G2 G2!>)! | G4 G2 G2 |!>(! G4 G2 G2!>)! |!pp! G6 G2 | G4- G2 z2 | %41
 z2!<(! G4 G2!<)! | %42
"^–ста-тель-ствах ми – ра                    не    –    пре-лож-но – е                       у –по–ва – ни– е;                              не  –  пре –""^–sta–tel'–stvakh  mi  –ra                    nye   –     pre-lozh-no–ye                       u– po–va –  ni–ye;                             nye –  pre –" G4 G2 A2 | %43
 B4!ff! d4- | d2!>(! (d2 e2) d2!>)! | c2 Bc B4- | B2!ff! (d2 e2) d2 | c2 Bc B4- | %48
 B2!>(! G4 G2!>)! | %49
!mf!"^–лож-но – е                 у   –   по –ва–ни–е,       у  –  по–ва  –  ни  –   е.""^–lozh-no–ye                u   –    po –va    ni–ye,     u  –  po –va  –   ni   – ye." G2 G2 G4- | %50
 G2!>(! G4 G2!>)! | G2 G2 G4 |!pp! C6 C2 | C6 A,2 | A,8 |!p! D2 D2 E2 D2 | D4 E2 D2 | %57
!<(! D4 D2 F2!<)! |!f! F4 F4 |!mf! F2 F2 G2 F2 | F4 G2 F2 |!<(! F4 F2 A2!<)! |!ff! A4 A4 | %63
!<(! A4 A2 c2!<)! |!fff! c4 c4 | z2 !>!c2 !>!c2 !>!c2 | !>!B4 !>!B4 | z2 !>!F2 !>!F2 !>!F2 | %68
 !>!B4 !>!B4 |!ff! c2 c2 c2 A2 |!>(! G4 G2 E2!>)! | F4 F2 D2 | E4 E4 | z2!pp! E2 E2 E2 | F4 F2 z2 | %75
 z2 E2 E2 E2 | (D4 C4) | (B,2!pp! C2 D2 A2 | B2 E2 D2 C2 | B,2 C2 D2 A2 | B2 E2 D2 C2 | %81
 B,4) C2 CC | B,4 B,4- | B,2 C2 C2 C2 | B,4 !fermata!B,4 |][K:Eb][M:4/4] z8 | z8 | z8 | z8 | %89
!mf!"^Я  –  ко–же бо    Жи–во–та""^Ya – ko–zhe bo    Zhi– vo–ta"!<(! C3 D E2 F2!<)! | %90
 G2 A2 (B3 c) | %91
"^Ма    –   терь,     к жи–во–ту пре–ста       –       –       –       –        ви,              Ма     –    терь,          к жи–во–ту  пре–""^Ma    –    ter',        k zhi–vo–tu  pre – sta       –       –       –       –         vi,                Ma    –      ter',           k zhi –vo–tu    pre–"!>(! (A3 B) (A2 GF)!>)! | %92
 G2 F2 E2 C2 |!<(! G8-!<)! | G4 d4 |!>(! (c3 d) (c2 =B=A)!>)! | =B2 =A2 G2 F2 | %97
!mf!"^–ста       –       –        ви,                           к жи  –  во–ту                     пре–ста       –       –       –       –  ви.""^–sta         –       –        vi,                            k zhi   –  vo–tu                      pre – sta       –       –       –       –   vi." (E3!<(! F G2 A2)!<)! | %98
 (B2 c2 _d2 e2) |!>(! c3 B c4-!>)! | c2 G2 (c2 B2 |!>(! A4 G2 F2)!>)! |!pp! !fermata!E8 |] %103
[K:G][M:4/4]!ff! GG | G4 F2 G2 | A2 B2 c2 cc |!fff! (B2 c2) B2 G2 | (B2 c2) B2 G2 | (B2 c2) B2 G2 | %109
 (B2 c2 B2) z2 | %110
 z2"^Во   у– тро     –     бу   Все  –ли       –       –       вый  –  ся,"!fff!"^Vo   u – tro      –     bu   Vsye– li         –       –        vuii   –  sya," !>!G!>!G (d2 c2) | %111
 B2 c2 (B2 A2 | B4)!>(! (G2 F2)!>)! | G4- G2 z2 | z2!ppp! DD D2 DD | [DF]3 [DF] [DF]4 | z2 E4 E2 | %117
 [B,D]2 [B,D][B,D] [B,D]4 | z2 DD D2 DD | [DF]3 [DF] [DF]4 | z2 E4 E2 | [B,D]2 [B,D][B,D] [B,D]4 | %122
!mf! G6 G2 | G4!>(! G2 F2!>)! |!p! G6!ff! GG | G4 F2 G2 | A2 B2 c2 cc | (c4!fff! d4- | d8- | %129
 d4)"^–ствен-ну–ю,                                         Во   у-тро-бу                                Все   –  ли – вый  – ся""^–stven –nu–yu,                                         Vo   u–tro–bu                               Vsye  –   li   – vuii   –sya" d2 d2 | %130
 d6 z2 | z2!fff! !>!F!>!F !>!c2 B2- | B6 G2 | G4!>(! (G2 F2)!>)! | G4- G2 z2 | z2!ppp! DD D2 DD | %136
 [DF]3 [DF] [DF]4 | z2 E4 E2 | [B,D]2 [B,D][B,D] [B,D]4 | z2 DD D2 DD | [DF]3 [DF] [DF]4 | %141
 z2 E4 E2 | [B,D]2 [B,D][B,D] [B,D]4 |!mf! G6 G2 |!>(! G4 D2 D2!>)! |!p! D4- D2 z2 | %146
 z2!ppp! CC C2 CC | B,3 B, B,4 | z2 C4 C2 | B,2 B,B, B,4 | z2 CC C2 CC | B,3 B, B,4 | z2 C4 C2 | %153
 B,2 B,B, B,4 | z4!ppp! B,2 B,2 | B,8 | B,4 B,4 | !fermata!B,8 |] %158
V:4
!ppp!"^В мо-лит-вах           не–у–сы – па – ю–щу–ю     Бо-го–ро  –  ди – цу                          и в пред-ста-тель-ствах""^V mo–lit–vakh        nye–u–sui–pa-yu-shchu-yu    Bo-go–ro  –   di – tsu                           i  v pred–sta–tel'–stvakh" B2 | %1
 B4 B4 | z2 B2 B2 B2 | B4 B2 B2 | B4 B2 B2 | [FB]6 [FB]2 | [FB]8- | [FB]2 z2 B2 B2 | B4 B2 B2 | %9
"^ми–ра               не-пре-лож-но –е      у–по–ва  –  ни –  е;""^mi –ra              nye-pre-lozh-no-ye      u–po–va   –   ni  – ye;" B4 B4- | %10
 B2 z2 B2 B2 | B6 B2 | B4 B2 B2 |!ppp! [DG]6 [DG]2 | [DG]8- | [DG]2 z2 z4 | z4 z2!p! B2 | A4 B4- | %18
 B2 d2 c2 d2 | (c2 Bc) B2 AB | (A2 G2) A2 B2 |!p! c6 c2 | c4- c2 z2 | z2!<(! c4 d2!<)! | e4 e2 c2 | %25
 d4!f! f4- | f2!>(! (f2 e2) f2!>)! | e2 de d4- | d2!>(! (f2 e2) f2!>)! | e2!>(! de d4-!>)! | %30
 d2 (e2 d2) e2 | d2 cd c4- |!ppp! c2 (B2 A2) B2 | A2 GA G2 z2 | z4 z2!p! B2 | A4 B4- | %36
 B2!>(! d2 c2 d2!>)! | (c2 Bc) B2 AB |!>(! (A2 G2) G2 A2!>)! |!pp! B6 B2 | B4- B2 z2 | %41
 z2!<(! G4 A2!<)! | B4 c2 c2 | d4!ff! d4- | d2!>(! (d2 c2) d2!>)! | e2 de d4- | d2!ff! (d2 c2) d2 | %47
 e2 de d4- | d2!>(! (B2 A2) B2!>)! |!mf! A2 GA G4- | G2!>(! (d2 c2) d2!>)! | c2 Bc B4 |!pp! G6 G2 | %53
 G6 ^F2 | ^F8 | %55
!p!"^Гроб и  у-мерщ-вле– ни–е     не          у-дер–""^Grob  i  u-mershch-vle-ni–ye   nye        u-der–" [GB]2 [^FA]2 G2 [FA]2 | %56
 ([GB]2 [^FA]2) G2 [FA]2 |!<(! ([GB]2 [^FA]2) [GB]2 [Ac]2!<)! | %58
!f!"^жа  – ста,   Гроб  и  у-мерщ-вле  –   ни –е      не            у  – дер – жа   –  ста,           не               у  – дер– жа –ста,""^zha – sta,    Grob  i  u-mershch-vle–    ni–ye     nye          u  –  der – zha  –  sta,            nye             u  – der –zha–sta," [Bd]4 ([Bd]2 [Ac]2) | %59
!mf! [Bd]2 [Ac]2 B2 [Ac]2 | ([Bd]2 [Ac]2) B2 [Ac]2 |!<(! ([Bd]2 [Ac]2) [Bd]2 [^c=e]2!<)! | %62
!ff! [df]4 ([df]2 [^c=e]2) |!<(! ([df]2 [^c=e]2) [df]2 [_eg]2!<)! |!fff! [eg]4 [eg]4 | %65
 z2"^не   у–дер– жа–ста,           не   у–дер–жа –ста.       Гроб и     у-мерщ–вле  – ни–е      не         у–дер–жа–ста,""^nye u–der –zha–sta,           nye  u–der–zha–sta.        Grob  i     u-mershch-vle–  ni–ye    nye       u–der–zha–sta," !>![eg]2 !>![eg]2 !>![eg]2 | %66
 !>![eg]4 !>![eg]4 | z2 !>![Bd]2 !>![Bd]2 !>![Bd]2 | !>![eg]4 !>![eg]4 |!ff! g2 g2 ^f2 e2 | %70
!>(! (d2 B2) c2 c2!>)! | (c2 A2) B2 B2 | B4 B4 | %73
 z2!pp!"^не  у–дер–жа–ста,           не  у–дер–жа       –      ста,""^nye u–der –zha–sta,          nye u–der–zha      –       sta," B2 B2 B2 | %74
 =B4 B2 z2 | z2 c2 c2 c2 | (B4 A4) | (D2!pp! E2 D2 C2 | D2 ^F2 G2 E2 | D2 E2 D2 C2 | D2 ^F2 G2 E2 | %81
 D4)"^не     у – дер –жа – ста,             не    у – дер –жа–ста.""^nye    u – der –zha – sta,             nye   u – der –zha–sta." E2 EE | %82
 D4 D4- | D2 E2 E2 E2 | D4 !fermata!D4 |][K:Eb][M:4/4] z8 | z8 | z8 | z8 | z8 | z8 | z8 | z8 | %93
!mf!"^Я  –  ко – же  бо     Жи–во–та           Ма     –    терь,            к жи–во–ту  пре–""^Ya – ko – zhe bo    Zhi – vo–ta            Ma     –     ter',              k zhi–vo–tu    pre –"!<(! G3 =A =B2 c2!<)! | %94
 d2 e2 (f3 g) |!>(! (e3 f) (e2 dc)!>)! | d2 c2 =B2 G2 | %97
"^–ста       –       –       –       –    ви,                Ма     –     терь,       к жи–во–ту пре–ста         –           ви.""^–sta        –       –       –       –     vi,                 Ma     –      ter',         k zhi –vo–tu  pre –sta           –          vi."!<(! c8-!<)! | %98
 c4 g4 |!>(! (f3 g) (f2 ed)!>)! | e2 d2 c2 c2 |!>(! d8!>)! |!pp! !fermata!c8 |] %103
[K:G][M:4/4]!ff!"^Во   у    –   тро   –    бу   Все –ли–вый–ся прис-но-дев –ствен–ну  –  ю,          прис-но  –  дев – ствен–ну  –""^Vo   u    –    tro    –    bu   Vsye–li – vuii–sya  pris– no-dev –stven – nu  – yu,          pric – no  –  dev – stven – nu  –" GG | %104
 _e4 d2 d2 | d2 d2 d2 dd |!fff! (d2 e2) d2 c2 | (d2 e2) d2 c2 | (d2 e2) d2 c2 | (d2 e2 d2) z2 | %110
 z4 z2!fff!"^Во у– тро    –    бу   Все  –   ли – вый  – ся,                          Во   у–тро–бу Все–""^Vo u – tro     –    bu   Vsye –    li  –  vuii  – sya,                         Vo   u– tro–bu  Vse–" !>!c!>!c | %111
 !>!g4 g2 g2 | g4!>(! (d2 c2)!>)! | B4- B2 z2 |!ppp! z2 BB B2 BB | %115
"^–ли–вый–ся               прис–но–дев-ствен-ну-ю,                      Во  у– тро– бу  Все–ли –вый–ся,               прис–но –""^– li – vuii–sya               pris – no–dev- stven–nu–yu,                    Vo  u – tro – bu  Vse – li –  vuii–sya,               pris – no –" [FB]3 [FB] [FB]4 | %116
 z2 G4 G2 | [DG]2 [DG][DG] [DG]4 | z2 BB B2 BB | [FB]3 [FB] [FB]4 | z2 G4 G2 | %121
"^–дев-ствен-ну-ю,     прис  –  но-дев-ствен-ну-ю,           Во   у  – тро   –   бу Все –ли-вый-ся прис-но-дев –""^–dev-stven–nu–yu,    pric    –  no-dev-stven–nu–yu,           Vo   u  –  tro    –   bu Vsye–li –vuii–sya pris–no–dev  –" [DG]2 [DG][DG] [DG]4 | %122
!mf! d6 e2 | B4!>(! B2 A2!>)! |!p! B6!ff! GG | _e4 d2 d2 | d2 d2 d2 dd | (e4!fff! d4- | %128
 d2 e2 f2 e2 | %129
 d2 e2)"^–ствен-ну–ю,                                                              Во  у-тро     –    бу  Все  –  ли – вый  – ся""^–stven –nu–yu,                                                              Vo  u–tro     –    bu  Vsye –   li   – vuii   –sya" f2 e2 | %130
 (d2 e2 f2) z2 | z4 z2!fff! !>!d!>!d | !>!g4 d2 e2 | d4!>(! (d2 c2)!>)! | B4- B2 z2 | %135
 z2!ppp!"^Во   у–тро-бу Все-ли-вый-ся     прис-но-дев-ствен-ну-ю,          Во у-тро-бу Все–ли-вый-ся      прис-но–""^Vo   u– tro–bu Vsye–li–vuii–sya   pris– no–dev–stven–nu–yu,        Vo u–tro–bu Vsye–li–vuii–sya     pris  –no–" BB B2 BB | %136
 [FB]3 [FB] [FB]4 | z2 G4 G2 | [DG]2 [DG][DG] [DG]4 | z2 BB B2 BB | [FB]3 [FB] [FB]4 | z2 G4 G2 | %142
"^–дев-ствен-ну-ю,     прис – но-дев-ствен-ну-ю,                       Во     у– тро–бу  Все –ли–вый–ся              прис-но–""^–dev–stven–nu–yu,     pris   – no-dev-stven –nu–yu,                     Vo     u–  tro –bu Vsye– li – vuii–sya             pris – no–" [DG]2 [DG][DG] [DG]4 | %143
!mf! d6 e2 |!>(! B4 A2 c2!>)! |!p! B4- B2 z2 | z2!ppp! GG G2 GG | [DG]3 [DG] [DG]4 | z2 G4 G2 | %149
"^–дев-ствен-ну-ю,             Во    у – тро–бу Все –ли–вый–ся           прис-но– дев-cтвен-ну-ю,          прис-но-дев–""^–dev–stven–nu–yu,            Vo   u  – tro –bu Vsye– li – vuii–sya         pris – no –dev–stven–nu–yu,         pris –no–dev–" [DG]2 [DG][DG] [DG]4 | %150
 z2 GG G2 GG | [DG]3 [DG] [DG]4 | z2 G4 G2 | [DG]2 [DG][DG] [DG]4 | z4!ppp! [DG]2 [DG]2 | [DG]8 | %156
"^–ствен–ну –  ю.""^– stven –nu  –yu." [DG]4 [DG]4 | !fermata![DG]8 |] %158
V:5
!ppp! G,2 | G,4 G,4 | z2 G,2 G,2 G,2 | E,4 E,2 E,2 | E,4 E,2 E,2 | B,,6 B,,2 | B,,8- | %7
 B,,2 z2 B,2 B,2 | B,4 B,2 B,2 | E,4 E,4- | E,2 z2 E,2 E,2 | E,6 E,2 | E,4 E,2 E,2 | %13
!ppp! G,,6 G,,2 | G,,8- | G,,2 z2 z4 | z8 | z8 | z8 | z8 | z8 | z8 | z8 | z8 | z8 | z8 | z8 | z8 | %28
 z8 | z8 | z8 | z8 | z8 | %33
 z2!mf!"^В  мо – лит–вах""^V  mo – lit  –vakh"!<(! D,2!>(! F,2 E,2!<)!!>)! | %34
"^не – у–сы–па – ю-щу–ю                                                                                                    Бо   –   го – ро    –    ди– цу""^nye–u-sui-pa-yu-shchu-yu                                                                                                   Bo   –   go – ro     –    di– tsu" D,4!p! D,2 D,2 | %35
 D,4 D,2 D,2 |!>(! D,8-!>)! | D,8- |!>(! D,8-!>)! |!pp!!<(! D,2 (D,2!>(! F,2) E,2!<)!!>)! | %40
 D,6 D,2 |!<(! D,8-!<)! | D,8- | %43
 D,2!ff!"^и   в пред–ста       –       –       –     тель–ствах     ми       –       –       –     ра      не–пре–лож    –    но –""^i   v  pred –sta        –       –        –      tel' –stvakh     mi       –       –       –      ra     nye–pre–lozh    –    no –" (D,2!>(! F,2) E,2!>)! | %44
!>(! D,8-!>)! |!<(! D,2 D,2!ff! (F,2!>(! E,2)!<)!!>)! | D,8- |!<(! D,2 D,2!>(! F,2 E,2!<)!!>)! | %48
!>(! D,6 D,2!>)! | %49
!mf!"^– е          у–по–ва      –    ни –  е;                     у –по  –  ва  –  ни –   е.""^–ye         u–po–va      –     ni   –ye,                    u –po   –  va  –   ni  – ye." D,4 F,2 E,2 | %50
!>(! D,6 D,2!>)! | D,8 |!pp! C,4 B,,4 | A,,6 D,2 | D,8 |!p! G,2 D,2 E,2 D,2 | (G,2 D,2) E,2 D,2 | %57
!<(! (G,2 D,2) G,2 F,2!<)! |!f! B,4 (B,2 F,2) |!mf! B,2 F,2 G,2 F,2 | (B,2 F,2) G,2 F,2 | %61
!<(! (B,2 F,2) B,2 A,2!<)! |!ff! D4 (D2 A,2) |!<(! (D2 A,2) D2 C2!<)! |!fff! C4 C4 | %65
 z2 !>!C2 !>!C2 !>!C2 | !>!E4 !>!E4 | z2 !>!B,2 !>!B,2 !>!B,2 | !>!E4 (E2 D2) | %69
!ff! C2 B,2 A,2 ^F,2 |!>(! (G,2 F,2) E,2 G,2!>)! | (F,2 E,2) D,2 F,2 | E,4 E,4 | %73
 z2!pp! E,2 E,2 E,2 | D,4 D,2 z2 | z2 C,2 C,2 C,2 | [D,,D,]8 |!ppp! G,,8- | G,,8- | G,,8- | G,,8- | %81
 G,,4 C,2 C,C, | G,,4 G,,4- | G,,2 C,2 C,2 C,2 | G,,4 !fermata!G,,4 |][K:Eb][M:4/4] z8 | z8 | z8 | %88
 z8 | z8 | z8 | z8 | z8 | z8 | z8 | z8 | z8 | %97
!mf!"^Я – ко–же бо   Жи–во–та                 Ма     –     терь,       к жи–во–ту  пре– ста         –          ви.""^Ya–ko–zhe bo  Zhi– vo–ta                  Ma     –      ter',         k zhi– vo–tu   pre – sta          –          vi." C,3!<(! D, E,2 F,2!<)! | %98
 G,2 A,2 (B,3 C) |!>(! (A,3 B,) (A,2 G,F,)!>)! | G,2 F,2 E,2 C,2 |!>(! (F,4 G,4)!>)! | %102
!pp! !fermata![C,G,]8 |][K:G][M:4/4]!ff! G,G, | C2 B,2 A,2 G,2 | F,2 E,2 D,2 D,D, | %106
!fff! G,4 G,2 E,2 | G,4 G,2 E,2 | G,4 G,2 E,2 | G,6 z2 | z8 | %111
!fff! z2"^Во у-тро-бу Все-ли–вый  – ся,""^Vo u–tro–bu Vsye–li–vuii   – sya," !>!G,!>!G, !>!B,2 EE | %112
 D4!>(! D,4!>)! | G,4- G,2 z2 | z2!ppp! G,G, G,2 G,G, | B,,3 B,, B,,4 | z2 E,4 E,2 | %117
 G,,2 G,,G,, G,,4 | z2 G,G, G,2 G,G, | B,,3 B,, B,,4 | z2 E,4 E,2 | G,,2 G,,G,, G,,4 | %122
!mf! (G,4 F,2) E,2 | D,4!>(! D,2 D,2!>)! |!p! G,6!ff! G,G, | (C2 B,2) A,2 G,2 | F,2 E,2 D,2 D,D, | %127
 (C,4!fff! C4- | C8- | %129
 C4)"^–ствен-ну–ю,                                                                                   Во у-тро-бу Все-ли–вый –ся""^–stven –nu–yu,                                                                                  Vo u–tro –bu Vsye–li–vuii –sya" C2 C2 | %130
 C6 z2 | z8 |!fff! z2 !>!G,!>!G, !>!B,2 CC | D4!>(! D,4!>)! | G,4- G,2 z2 | z2!ppp! G,G, G,2 G,G, | %136
 B,,3 B,, B,,4 | z2 E,4 E,2 | G,,2 G,,G,, G,,4 | z2 G,G, G,2 G,G, | B,,3 B,, B,,4 | z2 E,4 E,2 | %142
 G,,2 G,,G,, G,,4 |!mf! G,4 F,2 E,2 |!>(! D,4 D,2 D,2!>)! |!p! G,4- G,2 z2 | %146
 z2!ppp! C,C, C,2 C,C, | G,,3 G,, G,,4 | z2 C,4 C,2 | G,,2 G,,G,, G,,4 | z2 C,C, C,2 C,C, | %151
 G,,3 G,, G,,4 | z2 C,4 C,2 | G,,2 G,,G,, G,,4 | z4!ppp! G,,2 G,,2 | G,,8 | G,,4 G,,4 | %157
 !fermata!G,,8 |] %158

